X:1
T:Sedona, 77.77
T:Sedona, 77.77
T:Arranged by C. Marion Couch, 1901
T:Public Domain Courtesy of the Cyber Hymnal™
C:Arranged by C. Marion Couch, 1901
Z:Public Domain
Z:Courtesy of the Cyber Hymnal™
%%score ( 1 2 ) ( 3 4 )
L:1/8
Q:1/4=105
M:none
K:A
V:1 treble 
V:2 treble 
V:3 bass 
V:4 bass 
V:1
 [EA]2 (BG) [EA]2 [GB]2 | [Ac]2 (dc) [AB]2 [Ge] z | [EA]2 (BG) [EA]2 [GB]2 | %3
 [Ac]2 (dc) ([AB]2 [Ge]) z | [Ae]2 [_GA]2 [FB]2 (cd) | [Gc]2 [GB]2 [FA]4 | %6
 [Ae]2 [_GA]2 [FB]2 (cd) | [Gc]2 [GB]2 [EA]3 z |] %8
V:2
 x2 E2 x4 | x2 A2 x4 | x2 E2 x4 | x2 A2 x4 | x6 F2 | x8 | x6 F2 | x8 |] %8
V:3
 [A,C]2 [A,D]2 [A,C]2 [E,D]2 | [A,E]2 (FE) [E,D]2 [E,B,] z | [A,C]2 [A,D]2 [A,C]2 [E,D]2 | %3
 [A,E]2 (FE) [E,D]2 [E,B,] x | [C,A,]2 [C,A,]2 [D,A,]2 [D,B,]2 | [E,E]2 [^E,D]2 C4 | %6
 [C,A,]2 [C,E]2 [D,D]2 [D,B,]2 | [E,E]2 [E,D]2 [A,,A,C]3 z |] %8
V:4
 x8 | x2 F,2 x4 | x8 | x2 F,2 D, x3 | x8 | x4 (F,2 =E,D,) | x8 | x8 |] %8

